X:48
T:What if I seek for Love?
M:C
L:1/8
Q:120
C:Robert Jones 1601
S:First Book of Ayres 1601
R:Slow air
N:Originally for lute & voice
K:D
B2 EG F2 E2 A2 G2 F4 | EF G2 FG A2 GA B2 A2
G2 | F2 E4 ^D2 E8 :|| B3 B A3
A G3 G F2 B2 | E2 A2 =D2 E2 F4
DE FG | FG A2 EF GA Bc d2 GA B2 |
A2 G2 F4 E8 ||
